!!!ONB: MCCC : IWM0404_02 : Extracted Monophonic Melody
!!!COM: Mozart, Wolfgang Amadeus
!!!OPR: Piano Sonata No.4
!!!OMV: 2
!!!SCT: K.282 ; K⁶.189g
!!!ODT: 1775///
**kern
*thru
*staff1
*>A
*clefG2
*k[b-e-]
*B-:
*M3/4
*MM120
8.dd
16ee-
=1
8cc
8b-
4b-
4b-
=2
4a
4r
8.ee-
16ff
=3
8dd
8cc
4cc
4cc
=4
4b-
4r
8.dd
16ee-
=5
8ff
8gg
8ee-
8cc
8dd
8ee-
=6
8ff
8gg
8ee-
8cc
8dd
8ee-
=7
8ff
8bb-
8aa
8gg
8ff
8ee
=8
8dd
8cc
8b
8b-
8a
8g
=9
8.cc
16dd
4f
4e
=10
4f
4r
8.dd
16cc
=11
4cc
4r
8.ee
16ff
=12
4ff
4r
*>A
*M3/4
8.dd
16ee-
=13
8cc
8b-
4b-
4b-
=14
4a
4r
8.ee-
16ff
=15
8dd
8cc
4cc
4cc
=16
4b-
4r
8.dd
16ee-
=17
8ff
8gg
8ee-
8cc
8dd
8ee-
=18
8ff
8gg
8ee-
8cc
8dd
8ee-
=19
8ff
8bb-
8aa
8gg
8ff
8ee
=20
8dd
8cc
8b
8b-
8a
8g
=21
8.cc
16dd
4f
4e
=22
4f
4r
8.dd
16cc
=23
4cc
4r
8.ee
16ff
=24
4ff
4r
*>B
4aa-:
=25
4gg:
4gg-:
4ff:
=26
4ee:
4ee-:
4dd:
=27
4r
4cc
4dd-
=28
8b-
8a
8g
8f
4b-
=29
4ee-
8.dd
16cc
8.dd
16ee-
=30
4dd
4cc
4r
=31
4r
4ff
4ff
=32
4ff
4r
4r
=33
4r
4eee-
4eee-
=34
4ddd
4r
8.dd
16ee-
=35
8ff
8gg
8ee-
8cc
8dd
8ee-
=36
8ff
8gg
8ee-
8cc
8dd
8ee-
=37
8ff
8eee-
8ddd
8ccc
8bb-
8aa
=38
8gg
8ff
8ee
8ee-
8dd
8cc
=39
8.ff
16gg
4b-
4a
=40
4b-
4r
8.gg
16ff
=41
4ff
4r
8.aa
16bb-
=42
4bb-
4r
8.dd
16b-
=43
2ee-
8.cc
16a
=44
4b-
4r
*>B
4aa-:
=45
4gg:
4gg-:
4ff:
=46
4ee:
4ee-:
4dd:
=47
4r
4cc
4dd-
=48
8b-
8a
8g
8f
4b-
=49
4ee-
8.dd
16cc
8.dd
16ee-
=50
4dd
4cc
4r
=51
4r
4ff
4ff
=52
4ff
4r
4r
=53
4r
4eee-
4eee-
=54
4ddd
4r
8.dd
16ee-
=55
8ff
8gg
8ee-
8cc
8dd
8ee-
=56
8ff
8gg
8ee-
8cc
8dd
8ee-
=57
8ff
8eee-
8ddd
8ccc
8bb-
8aa
=58
8gg
8ff
8ee
8ee-
8dd
8cc
=59
8.ff
16gg
4b-
4a
=60
4b-
4r
8.gg
16ff
=61
4ff
4r
8.aa
16bb-
=62
4bb-
4r
8.dd
16b-
=63
2ee-
8.cc
16a
=64
*>C
*k[b-e-a-]
*E-:
4b-
4r
16b-
16cc
16b-
16a
=66
4b-
8r
16r
16b-
8.ee-
16ee-
=67
4ee-
4dd
16b-
16cc
16b-
16a
=68
4b-
8r
16r
16b-
8.gg
16gg
=69
4bb-
4aa-
16aa-
16bb-
16aa-
16ff
=70
16gg
16aa-
16gg
16ee-
12bb-
12aa-
12gg
12ff
12ee-
12dd-
=71
16cc
16dd-
16cc
16a-
12ccc
12bb-
12aa-
12gg
12ff
12ee
=72
16ff
16gg
16ff
16cc
12ccc
12bb-
12aa-
12gg
12ff
12ee-
=73
4ee-
4dd
16ff
16gg
16ff
16dd
=74
4ee-
4cc
16aa
16bb-
16aa
16ff
=75
4bb-
4ddd
16ff
16gg
16ff
16dd
=76
4ee-
4cc
16aa
16bb-
16aa
16ff
=77
4bb-
4ddd
16ccc
16bb-
16aa
16gg
=78
8gg
8ff
4ff
16gg
16ff
16ee-
16dd
=79
8dd
8cc
4cc
4cc
=80
32dd
32ee-
8.ff
4r
16ff
16ee-
16dd
16cc
=81
4b-
4r
*>C
16b-
16cc
16b-
16a
=83
4b-
8r
16r
16b-
8.ee-
16ee-
=84
4ee-
4dd
16b-
16cc
16b-
16a
=85
4b-
8r
16r
16b-
8.gg
16gg
=86
4bb-
4aa-
16aa-
16bb-
16aa-
16ff
=87
16gg
16aa-
16gg
16ee-
12bb-
12aa-
12gg
12ff
12ee-
12dd-
=88
16cc
16dd-
16cc
16a-
12ccc
12bb-
12aa-
12gg
12ff
12ee
=89
16ff
16gg
16ff
16cc
12ccc
12bb-
12aa-
12gg
12ff
12ee-
=90
4ee-
4dd
16ff
16gg
16ff
16dd
=91
4ee-
4cc
16aa
16bb-
16aa
16ff
=92
4bb-
4ddd
16ff
16gg
16ff
16dd
=93
4ee-
4cc
16aa
16bb-
16aa
16ff
=94
4bb-
4ddd
16ccc
16bb-
16aa
16gg
=95
8gg
8ff
4ff
16gg
16ff
16ee-
16dd
=96
8dd
8cc
4cc
4cc
=97
32dd
32ee-
8.ff
4r
16ff
16ee-
16dd
16cc
=98
4b-
4r
*>D
8b-
8b-
=99
16b
8.cc
4r
8dd
8dd
=100
16dd
8.ee-
4r
8ff
8ff
=101
16ff#
8.gg
4r
8aa
8aa
=102
16aa
8.bb-
4r
8b-
8b-
=103
8ee-
8ff
8gg-
8ff
8ee-
8dd
=104
8ee-
8ff
8gg-
8gg
8aa-
8aa
=105
4bb-
4r
16B-
16c-
16B-
16A
=106
4B-
4r
16b-
16cc
16b-
16a
=107
4b-
8r
16r
16b-
8.ee-
16ee-
=108
4ee-
4dd
16b-
16cc
16b-
16a
=109
4b-
8r
16r
16b-
8.gg
16gg
=110
4bb-
4aa-
16aa-
16bb-
16aa-
16ff
=111
16gg
16aa-
16gg
16ee-
12bb-
12aa-
12gg
12ff
12ee-
12dd-
=112
16cc
16dd-
16cc
16a-
12ccc
12bb-
12aa-
12gg
12ff
12ee
=113
16ff
16gg
16ff
16cc
12ccc
12bb-
12aa-
12gg
12ff
12ee-
=114
4ee-
4dd
16b-
16cc
16b-
16g
=115
4a-
4f
16dd
16ee-
16dd
16b-
=116
4ee-
4gg
16b-
16cc
16b-
16g
=117
4a-
4f
16dd
16ee-
16dd
16b-
=118
4ee-
4gg
16fff
16eee-
16ddd
16ccc
=119
8ccc
8bb-
4bb-
16ccc
16bb-
16aa-
16gg
=120
8gg
8ff
4ff
4ff
=121
32gg
32aa-
8.bb-
4r
16bb-
16aa-
16gg
16ff
=122
4ee-
4r
*>D
8b-
8b-
=123
16b
8.cc
4r
8dd
8dd
=124
16dd
8.ee-
4r
8ff
8ff
=125
16ff#
8.gg
4r
8aa
8aa
=126
16aa
8.bb-
4r
8b-
8b-
=127
8ee-
8ff
8gg-
8ff
8ee-
8dd
=128
8ee-
8ff
8gg-
8gg
8aa-
8aa
=129
4bb-
4r
16B-
16c-
16B-
16A
=130
4B-
4r
16b-
16cc
16b-
16a
=131
4b-
8r
16r
16b-
8.ee-
16ee-
=132
4ee-
4dd
16b-
16cc
16b-
16a
=133
4b-
8r
16r
16b-
8.gg
16gg
=134
4bb-
4aa-
16aa-
16bb-
16aa-
16ff
=135
16gg
16aa-
16gg
16ee-
12bb-
12aa-
12gg
12ff
12ee-
12dd-
=136
16cc
16dd-
16cc
16a-
12ccc
12bb-
12aa-
12gg
12ff
12ee
=137
16ff
16gg
16ff
16cc
12ccc
12bb-
12aa-
12gg
12ff
12ee-
=138
4ee-
4dd
16b-
16cc
16b-
16g
=139
4a-
4f
16dd
16ee-
16dd
16b-
=140
4ee-
4gg
16b-
16cc
16b-
16g
=141
4a-
4f
16dd
16ee-
16dd
16b-
=142
4ee-
4gg
16fff
16eee-
16ddd
16ccc
=143
8ccc
8bb-
4bb-
16ccc
16bb-
16aa-
16gg
=144
8gg
8ff
4ff
4ff
=145
32gg
32aa-
8.bb-
4r
16bb-
16aa-
16gg
16ff
=146
4ee-
4r
*>A
*k[b-e-]
*B-:
8.dd
16ee-
=147
8cc
8b-
4b-
4b-
=148
4a
4r
8.ee-
16ff
=149
8dd
8cc
4cc
4cc
=150
4b-
4r
8.dd
16ee-
=151
8ff
8gg
8ee-
8cc
8dd
8ee-
=152
8ff
8gg
8ee-
8cc
8dd
8ee-
=153
8ff
8bb-
8aa
8gg
8ff
8ee
=154
8dd
8cc
8b
8b-
8a
8g
=155
8.cc
16dd
4f
4e
=156
4f
4r
8.dd
16cc
=157
4cc
4r
8.ee
16ff
=158
4ff
4r
*>B
4aa-:
=159
4gg:
4gg-:
4ff:
=160
4ee:
4ee-:
4dd:
=161
4r
4cc
4dd-
=162
8b-
8a
8g
8f
4b-
=163
4ee-
8.dd
16cc
8.dd
16ee-
=164
4dd
4cc
4r
=165
4r
4ff
4ff
=166
4ff
4r
4r
=167
4r
4eee-
4eee-
=168
4ddd
4r
8.dd
16ee-
=169
8ff
8gg
8ee-
8cc
8dd
8ee-
=170
8ff
8gg
8ee-
8cc
8dd
8ee-
=171
8ff
8eee-
8ddd
8ccc
8bb-
8aa
=172
8gg
8ff
8ee
8ee-
8dd
8cc
=173
8.ff
16gg
4b-
4a
=174
4b-
4r
8.gg
16ff
=175
4ff
4r
8.aa
16bb-
=176
4bb-
4r
8.dd
16b-
=177
2ee-
8.cc
16a
=178
4b-
4r
==
*-
